cone.svg

<svg fill="currentColor" viewBox="0 0 24 24"><path d="M21.62 16.68 12.85 2.5A.96.96 0 0 0 12 2a.99.99 0 0 0-.85.47L2.38 16.65h.02c-.25.39-.4.85-.4 1.35 0 1.5 1.3 4 10 4 3.74 0 10-.5 10-4 0-.39-.09-.85-.38-1.32M12 4.9l6 9.68c-1.47-.35-3.4-.58-6-.58-1.75 0-4.04.12-6 .6zM12 20c-4.42 0-8-.89-8-2 0-1.1 3.58-2 8-2s8 .9 8 2c0 1.11-3.58 2-8 2"/></svg>

<svg  viewBox="0 0 24 24" fill="currentColor"><path  d="M21.62 16.68H21.62L12.85 2.5C12.66 2.16 12.33 2 12 2C11.67 2 11.34 2.16 11.15 2.47L2.38 16.65H2.4C2.15 17.04 2 17.5 2 18C2 19.5 3.3 22 12 22C15.74 22 22 21.5 22 18C22 17.61 21.91 17.15 21.62 16.68M12 4.9L18 14.58C16.53 14.23 14.6 14 12 14C10.25 14 7.96 14.12 6 14.6L12 4.9M12 20C7.58 20 4 19.11 4 18C4 16.9 7.58 16 12 16S20 16.9 20 18C20 19.11 16.42 20 12 20Z"/></svg>
